(MADE WITH FREE VERSION OF HEEKSCNC. Please buy full version to remove this text
(***********    MADE WITH FREE VERSION OF HEEKSCNC!   ***********
(***********    MADE WITH FREE VERSION OF HEEKSCNC!   ***********
(***********    MADE WITH FREE VERSION OF HEEKSCNC!   ***********
(***********    MADE WITH FREE VERSION OF HEEKSCNC!   ***********
(***********    MADE WITH FREE VERSION OF HEEKSCNC!   ***********
(***********    MADE WITH FREE VERSION OF HEEKSCNC!   ***********
(***********                    ***********
(***********    www.heeks.net   ***********
(***********                    ***********
(Created with emc2b post processor 2014/09/15 22:03)
(tool change to 1 mm End Mill)
T1 M06 G43
G17 G90 G21
(Sketch 2)
G00 X0 Y6.416 S1000 M03
Z2
G01 Z-0.1 F100
X0 Y10.456
X0.989 Y10.456
X0.989 Y7.138
X4.877 Y7.138
X4.877 Y10.456
X5.867 Y10.456
X5.867 Y2.375
X4.877 Y2.375
X4.877 Y6.184
X0.989 Y6.184
X0.989 Y2.375
X0 Y2.375
X0 Y6.416
G00 Z5
G90
(Sketch 3)
X12.061 Y4.134 S1000 M03
Z2
G01 Z-0.1
X11.112 Y4.26
X12.061 Y4.134
G02 X11.756 Y3.366 I-3.013 J0.752
X11.23 Y2.739 I-1.919 J1.077
X10.501 Y2.358 I-1.287 J1.575
X9.678 Y2.243 I-0.822 J2.877
X8.645 Y2.438 I0 J2.839
X7.793 Y3.034 I0.801 J2.052
X7.246 Y4.068 I1.882 J1.657
X7.097 Y5.253 I4.618 J1.184
X7.246 Y6.474 I5.068 J0
X7.801 Y7.546 I2.521 J-0.626
X8.623 Y8.152 I1.744 J-1.505
X9.627 Y8.361 I1.004 J-2.3
X10.604 Y8.155 I0 J-2.411
X11.403 Y7.562 I-0.917 J-2.072
X11.946 Y6.511 I-1.928 J-1.661
X12.092 Y5.313 I-4.845 J-1.198
X12.09 Y5.181 I-5.497 J0
X12.087 Y5.049 I-28.779 J0.695
G01 X8.046 Y5.049
G03 X8.176 Y4.26 I3.627 J0.191
X8.551 Y3.571 I1.685 J0.472
X9.062 Y3.193 I1.144 J1.014
X9.684 Y3.059 I0.621 J1.365
X10.14 Y3.129 I0 J1.523
X10.546 Y3.345 I-0.373 J1.186
X10.893 Y3.758 I-0.867 J1.08
X11.112 Y4.26 I-2.65 J1.457
G00 Z5
G90
(Sketch 4)
X8.046 Y5.049 S1000 M03
Z2
G01 Z-0.1
X12.087 Y5.049
G00 Z5
G90
(Sketch 5)
X11.122 Y5.864 S1000 M03
Z2
G01 Z-0.1
G03 X11.027 Y6.449 I-3.776 J-0.313
X10.775 Y6.972 I-1.355 J-0.33
X10.272 Y7.392 I-1.182 J-0.905
X9.638 Y7.546 I-0.634 J-1.237
X9.058 Y7.427 I0 J-1.47
X8.574 Y7.088 I0.571 J-1.333
X8.229 Y6.522 I1.162 J-1.095
X8.097 Y5.864 I2.284 J-0.802
G01 X11.122 Y5.864
X8.097 Y5.864
G00 Z5
G90
(Sketch 6)
X13.077 Y1.052 S1000 M03
Z2
G01 Z-0.1
X13.179 Y0.121
X13.077 Y1.052
G03 X13.337 Y0.989 I0.79 J2.7
X13.602 Y0.964 I0.265 J1.381
X13.856 Y0.986 I0 J1.465
X14.092 Y1.074 I-0.119 J0.68
X14.261 Y1.21 I-0.42 J0.7
X14.393 Y1.383 I-0.684 J0.655
X14.552 Y1.744 I-1.524 J0.888
G02 X14.674 Y2.122 I27.49 J-8.618
X14.713 Y2.243 I3.867 J-1.193
X14.755 Y2.364 I18.072 J-6.208
G01 X12.699 Y8.229
X13.689 Y8.229
X14.816 Y4.839
G02 X15.028 Y4.166 I-14.083 J-4.79
X15.209 Y3.483 I-16.497 J-4.751
X15.382 Y4.155 I14.104 J-3.263
X15.587 Y4.817 I13.34 J-3.768
G01 X16.745 Y8.229
X17.663 Y8.229
X15.602 Y2.276
G02 X15.367 Y1.602 I-69.768 J23.987
X15.087 Y0.948 I-5.3 J1.88
X14.848 Y0.552 I-2.594 J1.295
X14.526 Y0.228 I-1.157 J0.831
X14.167 Y0.055 I-0.67 J0.926
X13.77 Y0 I-0.396 J1.399
X13.47 Y0.034 I0 J1.341
X13.179 Y0.121 I0.526 J2.289
G00 Z5
G90
(Sketch 7)
X14.816 Y4.839 S1000 M03
Z2
G01 Z-0.1
X14.755 Y2.364
G00 Z5
G90
(Sketch 8)
X15.602 Y2.276 S1000 M03
Z2
G01 Z-0.1
X15.587 Y4.817
G00 Z5
G90
(Sketch 9)
X31.45 Y2.375 S1000 M03
Z2
G01 Z-0.1
G02 X31.328 Y2.728 I1.688 J0.781
X31.266 Y3.097 I2.718 J0.643
X30.803 Y2.722 I-3.269 J3.56
X30.284 Y2.436 I-1.49 J2.09
X29.787 Y2.29 I-0.954 J2.334
X29.271 Y2.243 I-0.516 J2.795
X28.531 Y2.346 I0 J2.702
X27.899 Y2.714 I0.405 J1.423
X27.538 Y3.266 I1.077 J1.096
X27.419 Y3.919 I1.722 J0.652
X27.463 Y4.323 I1.867 J0
X27.6 Y4.704 I1.567 J-0.347
X27.804 Y5.018 I1.575 J-0.802
X28.075 Y5.275 I1.136 J-0.925
X28.391 Y5.465 I1.218 J-1.662
X28.735 Y5.6 I1.003 J-2.062
X29.14 Y5.689 I0.937 J-3.284
X29.552 Y5.749 I2.49 J-15.784
G03 X30.382 Y5.872 I-2.757 J21.4
X31.189 Y6.09 I-0.717 J4.256
G02 X31.193 Y6.22 I62.328 J-1.552
G03 X31.195 Y6.349 I-4.8 J0.129
X31.149 Y6.813 I-2.386 J0
X30.934 Y7.204 I-0.724 J-0.143
X30.451 Y7.471 I-0.746 J-0.781
X29.888 Y7.54 I-0.562 J-2.241
X29.382 Y7.497 I0 J-2.973
X28.932 Y7.295 I0.169 J-0.982
X28.634 Y6.905 I0.626 J-0.787
X28.475 Y6.427 I2.671 J-1.15
G01 X27.577 Y6.559
G02 X27.724 Y7.086 I3.45 J-0.678
X27.98 Y7.565 I1.813 J-0.661
X28.342 Y7.917 I1.22 J-0.893
X28.791 Y8.155 I1.247 J-1.81
X29.396 Y8.315 I1.015 J-2.607
X30.021 Y8.361 I0.625 J-4.205
X30.595 Y8.328 I0 J-4.883
X31.149 Y8.185 I-0.251 J-2.119
X31.499 Y8.005 I-0.832 J-2.048
X31.786 Y7.741 I-0.592 J-0.934
X31.967 Y7.421 I-1.064 J-0.812
X32.072 Y7.066 I-1.926 J-0.761
X32.116 Y6.61 I-2.68 J-0.485
X32.118 Y6.151 I-42.288 J-0.459
G01 X32.118 Y4.828
G02 X32.113 Y3.95 I-72.072 J0
G03 X32.177 Y3.078 I5.123 J-0.062
X32.265 Y2.717 I2.267 J0.362
X32.409 Y2.375 I2.264 J0.751
G01 X31.45 Y2.375
X32.409 Y2.375
G00 Z5
G90
(Sketch 10)
X21.511 Y6.416 S1000 M03
Z2
G01 Z-0.1
X21.511 Y10.456
X26.557 Y10.456
X26.557 Y9.502
X22.5 Y9.502
X22.5 Y7
X26.011 Y7
X26.011 Y6.046
X22.5 Y6.046
X22.5 Y2.375
X21.511 Y2.375
X21.511 Y6.416
G00 Z5
G90
(Sketch 11)
X27.577 Y6.559 S1000 M03
Z2
G01 Z-0.1
X28.475 Y6.427
G00 Z5
G90
(Sketch 12)
X32.118 Y4.828 S1000 M03
Z2
G01 Z-0.1
X32.118 Y6.151
G00 Z5
G90
(Sketch 13)
X31.189 Y5.313 S1000 M03
Z2
G01 Z-0.1
G02 X30.454 Y5.077 I-1.49 J3.38
X29.689 Y4.938 I-3.01 J14.419
G03 X29.28 Y4.867 I1.83 J-11.754
X28.888 Y4.74 I0.311 J-1.625
X28.683 Y4.605 I0.371 J-0.791
X28.526 Y4.417 I0.525 J-0.598
X28.43 Y4.191 I0.748 J-0.449
X28.399 Y3.946 I0.925 J-0.244
X28.47 Y3.586 I0.943 J0
X28.677 Y3.285 I0.813 J0.335
X29.053 Y3.076 I0.59 J0.621
X29.49 Y3.02 I0.437 J1.691
X29.98 Y3.081 I0 J2.002
X30.434 Y3.271 I-0.405 J1.605
X30.79 Y3.568 I-0.807 J1.331
X31.041 Y3.957 I-1.13 J1.004
X31.167 Y4.443 I-1.42 J0.624
X31.189 Y4.949 I-5.612 J0.506
G01 X31.189 Y5.313
X31.189 Y4.949
G00 Z5
G90
(Sketch 14)
X31.266 Y3.097 S1000 M03
Z2
G01 Z-0.1
G00 Z5
G90
(Sketch 15)
X34.271 Y1.747 S1000 M03
Z2
G01 Z-0.1
X33.378 Y1.89
X34.271 Y1.747
G03 X34.365 Y1.387 I1.414 J0.177
X34.582 Y1.096 I0.666 J0.271
X35.022 Y0.88 I0.702 J0.871
X35.516 Y0.821 I0.494 J2.04
X36.037 Y0.877 I0 J2.456
X36.501 Y1.096 I-0.239 J1.105
X36.799 Y1.442 I-0.758 J0.955
X36.97 Y1.868 I-1.418 J0.818
X37.041 Y2.501 I-2.587 J0.609
G02 X37.037 Y3.141 I194.95 J1.664
X36.371 Y2.584 I-1.657 J1.302
X35.537 Y2.375 I-0.834 J1.564
X34.563 Y2.601 I0 J2.214
X33.807 Y3.246 I0.878 J1.794
X33.34 Y4.24 I2.594 J1.823
X33.195 Y5.335 I4.039 J1.095
X33.262 Y6.122 I4.634 J0
X33.475 Y6.881 I3.768 J-0.649
X33.805 Y7.488 I2.661 J-1.054
X34.289 Y7.976 I1.726 J-1.23
X34.883 Y8.267 I1.142 J-1.578
X35.542 Y8.361 I0.658 J-2.246
X36.428 Y8.132 I0 J-1.828
X37.123 Y7.524 I-1.06 J-1.913
G01 X37.123 Y8.229
X37.97 Y8.229
X37.97 Y3.169
G02 X37.957 Y2.584 I-13.268 J0
X37.906 Y2.001 I-6.636 J0.293
X37.837 Y1.608 I-4.826 J0.641
X37.713 Y1.231 I-1.849 J0.402
X37.374 Y0.718 I-1.772 J0.8
X36.896 Y0.33 I-1.546 J1.416
X36.234 Y0.073 I-1.106 J1.869
X35.521 Y0 I-0.712 J3.411
X34.693 Y0.105 I0 J3.313
X33.955 Y0.471 I0.499 J1.932
X33.503 Y1.104 I0.863 J1.093
X33.378 Y1.89 I2.108 J0.738
G00 Z5
G90
(Sketch 16)
X37.97 Y3.169 S1000 M03
Z2
G01 Z-0.1
X37.123 Y7.524
G00 Z5
G90
(Sketch 17)
X34.157 Y4.961 S1000 M03
Z2
G01 Z-0.1
G03 X34.21 Y4.517 I5.525 J0.446
X34.562 Y3.726 I1.682 J0.273
X35.034 Y3.339 I1.141 J0.913
X35.623 Y3.197 I0.589 J1.143
X36.211 Y3.339 I0 J1.284
X36.685 Y3.723 I-0.682 J1.324
X37.038 Y4.499 I-1.305 J1.063
X37.113 Y5.374 I-5.053 J0.874
X37.029 Y6.232 I-4.408 J0
X36.672 Y6.994 I-1.722 J-0.341
X36.198 Y7.389 I-1.234 J-0.998
X35.608 Y7.54 I-0.59 J-1.081
X35.03 Y7.392 I0 J-1.202
X34.567 Y7.003 I0.739 J-1.347
X34.22 Y6.251 I1.358 J-1.083
X34.139 Y5.407 I4.335 J-0.844
X34.157 Y4.961 I5.543 J0
G00 Z5
G90
(Sketch 18)
X40.088 Y1.747 S1000 M03
Z2
G01 Z-0.1
X39.195 Y1.89
X40.088 Y1.747
G03 X40.182 Y1.387 I1.414 J0.177
X40.399 Y1.096 I0.666 J0.271
X40.838 Y0.88 I0.702 J0.871
X41.333 Y0.821 I0.494 J2.041
X41.854 Y0.877 I0 J2.456
X42.317 Y1.096 I-0.239 J1.105
X42.615 Y1.442 I-0.758 J0.955
X42.787 Y1.868 I-1.418 J0.818
X42.858 Y2.501 I-2.588 J0.609
G02 X42.853 Y3.141 I195.448 J1.667
X42.188 Y2.584 I-1.657 J1.302
X41.353 Y2.375 I-0.834 J1.564
X40.379 Y2.601 I0 J2.214
X39.623 Y3.246 I0.878 J1.794
X39.157 Y4.24 I2.594 J1.823
X39.011 Y5.335 I4.038 J1.095
X39.078 Y6.122 I4.634 J0
X39.292 Y6.881 I3.768 J-0.649
X39.622 Y7.488 I2.661 J-1.054
X40.106 Y7.976 I1.726 J-1.23
X40.7 Y8.267 I1.142 J-1.578
X41.358 Y8.361 I0.658 J-2.246
X42.244 Y8.132 I0 J-1.828
X42.94 Y7.524 I-1.06 J-1.913
G01 X42.94 Y8.229
X43.787 Y8.229
X43.787 Y3.169
G02 X43.774 Y2.584 I-13.269 J0
X43.722 Y2.001 I-6.636 J0.293
X43.654 Y1.608 I-4.826 J0.641
X43.529 Y1.231 I-1.849 J0.402
X43.191 Y0.718 I-1.772 J0.8
X42.713 Y0.33 I-1.546 J1.416
X42.05 Y0.073 I-1.106 J1.869
X41.338 Y0 I-0.712 J3.411
X40.509 Y0.105 I0 J3.313
X39.771 Y0.471 I0.499 J1.932
X39.32 Y1.104 I0.863 J1.093
X39.195 Y1.89 I2.108 J0.738
G00 Z5
G90
(Sketch 19)
X43.787 Y3.169 S1000 M03
Z2
G01 Z-0.1
X42.94 Y7.524
G00 Z5
G90
(Sketch 20)
X39.973 Y4.961 S1000 M03
Z2
G01 Z-0.1
G03 X40.027 Y4.517 I5.525 J0.446
X40.379 Y3.726 I1.682 J0.273
X40.851 Y3.339 I1.141 J0.913
X41.44 Y3.197 I0.589 J1.143
X42.028 Y3.339 I0 J1.284
X42.501 Y3.723 I-0.682 J1.324
X42.855 Y4.499 I-1.305 J1.063
X42.93 Y5.374 I-5.053 J0.874
X42.845 Y6.232 I-4.408 J0
X42.488 Y6.994 I-1.722 J-0.341
X42.015 Y7.389 I-1.234 J-0.998
X41.425 Y7.54 I-0.59 J-1.081
X40.846 Y7.392 I0 J-1.202
X40.384 Y7.003 I0.739 J-1.347
X40.037 Y6.251 I1.358 J-1.083
X39.955 Y5.407 I4.335 J-0.844
X39.973 Y4.961 I5.543 J0
G00 Z5
G90
(Sketch 21)
X44.882 Y5.963 S1000 M03
Z2
G01 Z-0.1
G02 X45.013 Y6.612 I4.948 J-0.66
X45.675 Y7.711 I2.266 J-0.616
X46.463 Y8.197 I1.611 J-1.731
X47.379 Y8.361 I0.915 J-2.467
X48.379 Y8.16 I0 J-2.577
X49.205 Y7.57 I-0.899 J-2.136
X49.759 Y6.554 I-1.868 J-1.675
X49.915 Y5.385 I-4.298 J-1.168
X49.858 Y4.473 I-7.305 J0
X49.601 Y3.607 I-2.76 J0.347
X49.217 Y3.037 I-2.202 J1.066
X48.688 Y2.601 I-1.71 J1.539
X48.058 Y2.333 I-1.287 J2.155
X47.379 Y2.243 I-0.678 J2.499
X46.371 Y2.442 I0 J2.653
X45.539 Y3.031 I0.86 J2.095
X44.984 Y4.089 I1.848 J1.645
X44.838 Y5.302 I4.962 J1.213
X44.882 Y5.963 I4.992 J0
G00 Z5
G90
(Sketch 22)
X48.95 Y4.879 S1000 M03
Z2
G01 Z-0.1
G03 X48.971 Y5.335 I-4.973 J0.455
X48.882 Y6.208 I-4.32 J0
X48.514 Y6.981 I-1.759 J-0.362
X48.008 Y7.389 I-1.223 J-0.998
X47.379 Y7.54 I-0.628 J-1.234
X46.746 Y7.391 I0 J-1.418
X46.236 Y6.983 I0.691 J-1.387
X45.867 Y6.193 I1.381 J-1.126
X45.782 Y5.302 I4.632 J-0.891
X45.867 Y4.41 I4.715 J0
X46.236 Y3.618 I1.762 J0.339
X46.746 Y3.209 I1.206 J0.978
X47.379 Y3.059 I0.633 J1.262
X48.01 Y3.21 I0 J1.39
X48.517 Y3.621 I-0.709 J1.393
X48.888 Y4.427 I-1.404 J1.134
X48.95 Y4.879 I-4.911 J0.907
G00 Z5
G90
(Sketch 23)
X53.134 Y2.386 S1000 M03
Z2
G01 Z-0.1
X53.001 Y3.263
X53.134 Y2.386
G02 X52.789 Y2.323 I-0.939 J4.129
X52.44 Y2.298 I-0.349 J2.461
X52.037 Y2.33 I0 J2.553
X51.665 Y2.469 I0.159 J0.996
X51.435 Y2.663 I0.545 J0.88
X51.277 Y2.918 I0.662 J0.585
X51.165 Y3.493 I1.43 J0.576
X51.165 Y4.09 I497.901 J0.596
G01 X51.165 Y7.457
X50.491 Y7.457
X50.491 Y8.229
X51.165 Y8.229
X51.165 Y9.679
X52.078 Y10.274
X52.078 Y8.229
X53.001 Y8.229
X53.001 Y7.457
X52.078 Y7.457
X52.078 Y4.034
G02 X52.076 Y3.757 I-25.27 J0
G03 X52.126 Y3.489 I0.701 J-0.007
X52.191 Y3.38 I0.383 J0.153
X52.285 Y3.296 I0.321 J0.263
X52.435 Y3.237 I0.213 J0.326
X52.598 Y3.224 I0.163 J0.997
X52.801 Y3.236 I0 J1.767
X53.001 Y3.263 I-0.613 J5.33
G00 Z5
G90
(Sketch 24)
X52.078 Y4.034 S1000 M03
Z2
G01 Z-0.1
X51.165 Y4.09
G00 Z5
G90
(Sketch 25)
X54.155 Y2.94 S1000 M03
Z2
G01 Z-0.1
X54.155 Y3.505
X55.201 Y3.505
X55.201 Y2.375
X54.155 Y2.375
X54.155 Y2.94
G00 Z5
G90
(Sketch 26)
X61.282 Y5.159 S1000 M03
Z2
G01 Z-0.1
X61.114 Y2.375
X59.129 Y10.456
X60.145 Y10.456
X61.282 Y5.159
G02 X61.452 Y4.334 I-29.525 J-6.515
X61.599 Y3.505 I-28.303 J-5.424
G03 X61.761 Y4.254 I-93.211 J20.559
G02 X61.936 Y4.999 I17.59 J-3.732
G01 X63.359 Y10.456
X64.553 Y10.456
X65.624 Y6.366
G02 X65.961 Y4.945 I-26.347 J-6.98
X66.206 Y3.505 I-19.628 J-4.089
X66.383 Y4.386 I32.398 J-6.04
X66.579 Y5.264 I55.597 J-11.943
G01 X67.752 Y10.456
X68.747 Y10.456
X66.696 Y2.375
X65.742 Y2.375
X64.165 Y8.532
G03 X64.042 Y9.005 I-68.33 J-17.62
G02 X63.93 Y9.48 I7.924 J2.102
X63.826 Y9.005 I-30.415 J6.411
X63.711 Y8.532 I-15.003 J3.408
G01 X62.124 Y2.375
X61.114 Y2.375
X63.711 Y8.532
G00 Z5
G90
(Sketch 27)
X65.624 Y6.366 S1000 M03
Z2
G01 Z-0.1
X61.936 Y4.999
G00 Z5
G90
(Sketch 28)
X64.165 Y8.532 S1000 M03
Z2
G01 Z-0.1
X66.579 Y5.264
G00 Z5
G90
(Sketch 29)
X73.268 Y2.375 S1000 M03
Z2
G01 Z-0.1
G02 X73.146 Y2.728 I1.688 J0.781
X73.084 Y3.097 I2.718 J0.643
X72.621 Y2.722 I-3.269 J3.56
X72.102 Y2.436 I-1.49 J2.09
X71.605 Y2.29 I-0.954 J2.334
X71.089 Y2.243 I-0.516 J2.795
X70.349 Y2.346 I0 J2.702
X69.716 Y2.714 I0.405 J1.423
X69.356 Y3.266 I1.077 J1.096
X69.237 Y3.919 I1.722 J0.652
X69.281 Y4.323 I1.867 J0
X69.418 Y4.704 I1.567 J-0.347
X69.622 Y5.018 I1.575 J-0.802
X69.892 Y5.275 I1.136 J-0.925
X70.209 Y5.465 I1.218 J-1.662
X70.553 Y5.6 I1.003 J-2.062
X70.958 Y5.689 I0.937 J-3.284
X71.37 Y5.749 I2.489 J-15.782
G03 X72.2 Y5.872 I-2.757 J21.4
X73.007 Y6.09 I-0.717 J4.256
G02 X73.011 Y6.22 I62.328 J-1.552
G03 X73.012 Y6.349 I-4.8 J0.129
X72.967 Y6.813 I-2.386 J0
X72.752 Y7.204 I-0.724 J-0.143
X72.269 Y7.471 I-0.746 J-0.781
X71.706 Y7.54 I-0.562 J-2.241
X71.2 Y7.497 I0 J-2.973
X70.75 Y7.295 I0.169 J-0.982
X70.452 Y6.905 I0.626 J-0.787
X70.293 Y6.427 I2.671 J-1.15
G01 X69.395 Y6.559
G02 X69.542 Y7.086 I3.451 J-0.678
X69.798 Y7.565 I1.813 J-0.661
X70.16 Y7.917 I1.22 J-0.893
X70.609 Y8.155 I1.247 J-1.81
X71.213 Y8.315 I1.015 J-2.607
X71.839 Y8.361 I0.625 J-4.205
X72.413 Y8.328 I0 J-4.883
X72.967 Y8.185 I-0.251 J-2.119
X73.317 Y8.005 I-0.832 J-2.048
X73.604 Y7.741 I-0.592 J-0.934
X73.785 Y7.421 I-1.064 J-0.812
X73.89 Y7.066 I-1.926 J-0.761
X73.933 Y6.61 I-2.68 J-0.485
X73.936 Y6.151 I-42.259 J-0.459
G01 X73.936 Y4.828
G02 X73.931 Y3.95 I-72.071 J0
G03 X73.995 Y3.078 I5.123 J-0.062
X74.083 Y2.717 I2.267 J0.362
X74.227 Y2.375 I2.264 J0.751
G01 X73.268 Y2.375
X74.227 Y2.375
G00 Z5
G90
(Sketch 30)
X69.395 Y6.559 S1000 M03
Z2
G01 Z-0.1
X70.293 Y6.427
G00 Z5
G90
(Sketch 31)
X73.936 Y4.828 S1000 M03
Z2
G01 Z-0.1
X73.936 Y6.151
G00 Z5
G90
(Sketch 32)
X73.007 Y5.313 S1000 M03
Z2
G01 Z-0.1
G02 X72.272 Y5.077 I-1.49 J3.38
X71.507 Y4.938 I-3.01 J14.419
G03 X71.098 Y4.867 I1.83 J-11.753
X70.706 Y4.74 I0.311 J-1.625
X70.501 Y4.605 I0.371 J-0.791
X70.344 Y4.417 I0.525 J-0.598
X70.248 Y4.191 I0.748 J-0.449
X70.216 Y3.946 I0.925 J-0.244
X70.288 Y3.586 I0.943 J0
X70.495 Y3.285 I0.813 J0.335
X70.871 Y3.076 I0.59 J0.621
X71.308 Y3.02 I0.437 J1.691
X71.798 Y3.081 I0 J2.002
X72.252 Y3.271 I-0.405 J1.605
X72.608 Y3.568 I-0.807 J1.331
X72.859 Y3.957 I-1.13 J1.004
X72.985 Y4.443 I-1.42 J0.624
X73.007 Y4.949 I-5.611 J0.506
G01 X73.007 Y5.313
X73.007 Y4.949
G00 Z5
G90
(Sketch 33)
X73.084 Y3.097 S1000 M03
Z2
G01 Z-0.1
G00 Z5
G90
(Sketch 34)
X76.191 Y7.397 S1000 M03
Z2
G01 Z-0.1
X75.365 Y2.375
X75.365 Y8.229
X76.191 Y8.229
X76.191 Y7.397
G02 X76.511 Y7.806 I2.026 J-1.254
X76.921 Y8.12 I1.287 J-1.254
X77.402 Y8.304 I0.873 J-1.561
X77.916 Y8.361 I0.514 J-2.286
X78.377 Y8.315 I0 J-2.325
X78.816 Y8.171 I-0.392 J-1.941
X79.16 Y7.964 I-0.765 J-1.653
X79.431 Y7.672 I-0.732 J-0.955
X79.61 Y7.321 I-1.449 J-0.958
X79.717 Y6.939 I-2.232 J-0.831
X79.764 Y6.459 I-2.817 J-0.521
X79.768 Y5.975 I-33.796 J-0.484
G01 X79.768 Y2.375
X78.849 Y2.375
X78.849 Y5.936
G03 X78.835 Y6.396 I-7.111 J0
X78.742 Y6.843 I-1.643 J-0.106
X78.591 Y7.113 I-0.884 J-0.315
X78.362 Y7.322 I-0.77 J-0.615
X78.056 Y7.459 I-0.568 J-0.866
X77.722 Y7.502 I-0.334 J-1.276
X77.177 Y7.397 I0 J-1.476
X76.709 Y7.099 I0.543 J-1.369
X76.51 Y6.831 I0.652 J-0.691
X76.389 Y6.516 I1.598 J-0.794
X76.304 Y6.049 I2.502 J-0.698
X76.283 Y5.572 I5.345 J-0.476
G01 X76.283 Y2.375
X75.365 Y2.375
X76.283 Y5.572
G00 Z5
G90
(Sketch 35)
X78.849 Y5.936 S1000 M03
Z2
G01 Z-0.1
X79.768 Y5.975
G00 Z5
G90
(Sketch 36)
X82.008 Y7.397 S1000 M03
Z2
G01 Z-0.1
X81.181 Y2.375
X81.181 Y8.229
X82.008 Y8.229
X82.008 Y7.397
G02 X82.327 Y7.806 I2.026 J-1.254
X82.737 Y8.12 I1.287 J-1.254
X83.218 Y8.304 I0.873 J-1.561
X83.732 Y8.361 I0.514 J-2.286
X84.193 Y8.315 I0 J-2.325
X84.633 Y8.171 I-0.392 J-1.941
X84.976 Y7.964 I-0.765 J-1.653
X85.248 Y7.672 I-0.732 J-0.955
X85.426 Y7.321 I-1.449 J-0.958
X85.533 Y6.939 I-2.232 J-0.831
X85.581 Y6.459 I-2.816 J-0.521
X85.584 Y5.975 I-33.809 J-0.484
G01 X85.584 Y2.375
X84.666 Y2.375
X84.666 Y5.936
G03 X84.651 Y6.396 I-7.111 J0
X84.559 Y6.843 I-1.643 J-0.106
X84.408 Y7.113 I-0.884 J-0.315
X84.179 Y7.322 I-0.77 J-0.615
X83.872 Y7.459 I-0.568 J-0.866
X83.538 Y7.502 I-0.334 J-1.276
X82.993 Y7.397 I0 J-1.476
X82.526 Y7.099 I0.543 J-1.369
X82.327 Y6.831 I0.652 J-0.691
X82.206 Y6.516 I1.598 J-0.794
X82.121 Y6.049 I2.502 J-0.698
X82.1 Y5.572 I5.345 J-0.476
G01 X82.1 Y2.375
X81.181 Y2.375
X82.1 Y5.572
G00 Z5
G90
(Sketch 37)
X84.666 Y5.936 S1000 M03
Z2
G01 Z-0.1
X85.584 Y5.975
G00 Z5
G90
(Sketch 38)
X90.717 Y2.375 S1000 M03
Z2
G01 Z-0.1
G02 X90.595 Y2.728 I1.688 J0.781
X90.534 Y3.097 I2.718 J0.643
X90.071 Y2.722 I-3.269 J3.56
X89.551 Y2.436 I-1.49 J2.09
X89.055 Y2.29 I-0.954 J2.334
X88.539 Y2.243 I-0.516 J2.795
X87.798 Y2.346 I0 J2.702
X87.166 Y2.714 I0.405 J1.423
X86.806 Y3.266 I1.077 J1.096
X86.686 Y3.919 I1.722 J0.652
X86.731 Y4.323 I1.867 J0
X86.868 Y4.704 I1.567 J-0.347
X87.072 Y5.018 I1.575 J-0.802
X87.342 Y5.275 I1.136 J-0.925
X87.658 Y5.465 I1.218 J-1.662
X88.003 Y5.6 I1.003 J-2.062
X88.408 Y5.689 I0.937 J-3.284
X88.819 Y5.749 I2.489 J-15.782
G03 X89.65 Y5.872 I-2.757 J21.401
X90.457 Y6.09 I-0.717 J4.256
G02 X90.46 Y6.22 I62.661 J-1.561
G03 X90.462 Y6.349 I-4.8 J0.129
X90.417 Y6.813 I-2.386 J0
X90.202 Y7.204 I-0.724 J-0.143
X89.718 Y7.471 I-0.746 J-0.781
X89.156 Y7.54 I-0.562 J-2.241
X88.65 Y7.497 I0 J-2.973
X88.199 Y7.295 I0.169 J-0.982
X87.901 Y6.905 I0.626 J-0.787
X87.743 Y6.427 I2.671 J-1.15
G01 X86.845 Y6.559
G02 X86.992 Y7.086 I3.451 J-0.678
X87.248 Y7.565 I1.813 J-0.661
X87.61 Y7.917 I1.22 J-0.893
X88.059 Y8.155 I1.247 J-1.81
X88.663 Y8.315 I1.015 J-2.607
X89.289 Y8.361 I0.625 J-4.205
X89.863 Y8.328 I0 J-4.883
X90.416 Y8.185 I-0.251 J-2.119
X90.767 Y8.005 I-0.832 J-2.048
X91.054 Y7.741 I-0.592 J-0.934
X91.235 Y7.421 I-1.064 J-0.812
X91.34 Y7.066 I-1.925 J-0.761
X91.383 Y6.61 I-2.68 J-0.485
X91.386 Y6.151 I-42.293 J-0.459
G01 X91.386 Y4.828
G02 X91.38 Y3.95 I-72.066 J0
G03 X91.444 Y3.078 I5.123 J-0.062
X91.532 Y2.717 I2.267 J0.362
X91.676 Y2.375 I2.264 J0.751
G01 X90.717 Y2.375
X91.676 Y2.375
G00 Z5
G90
(Sketch 39)
X86.845 Y6.559 S1000 M03
Z2
G01 Z-0.1
X87.743 Y6.427
G00 Z5
G90
(Sketch 40)
X91.386 Y4.828 S1000 M03
Z2
G01 Z-0.1
X91.386 Y6.151
G00 Z5
G90
(Sketch 41)
X90.457 Y5.313 S1000 M03
Z2
G01 Z-0.1
G02 X89.721 Y5.077 I-1.49 J3.38
X88.957 Y4.938 I-3.01 J14.419
G03 X88.548 Y4.867 I1.83 J-11.753
X88.156 Y4.74 I0.311 J-1.625
X87.951 Y4.605 I0.371 J-0.791
X87.794 Y4.417 I0.525 J-0.597
X87.698 Y4.191 I0.748 J-0.449
X87.666 Y3.946 I0.925 J-0.244
X87.737 Y3.586 I0.943 J0
X87.944 Y3.285 I0.813 J0.335
X88.32 Y3.076 I0.59 J0.621
X88.758 Y3.02 I0.437 J1.691
X89.248 Y3.081 I0 J2.002
X89.702 Y3.271 I-0.405 J1.605
X90.058 Y3.568 I-0.807 J1.331
X90.309 Y3.957 I-1.13 J1.004
X90.434 Y4.443 I-1.42 J0.624
X90.457 Y4.949 I-5.611 J0.506
G01 X90.457 Y5.313
X90.457 Y4.949
G00 Z5
G90
(Sketch 42)
X90.534 Y3.097 S1000 M03
Z2
G01 Z-0.1
G00 Z5
G90
(Sketch 43)
X96.437 Y1.747 S1000 M03
Z2
G01 Z-0.1
X95.544 Y1.89
X96.437 Y1.747
G03 X96.531 Y1.387 I1.414 J0.177
X96.748 Y1.096 I0.666 J0.271
X97.187 Y0.88 I0.702 J0.871
X97.682 Y0.821 I0.494 J2.041
X98.203 Y0.877 I0 J2.456
X98.666 Y1.096 I-0.239 J1.105
X98.964 Y1.442 I-0.758 J0.955
X99.136 Y1.868 I-1.418 J0.818
X99.207 Y2.501 I-2.588 J0.609
G02 X99.202 Y3.141 I195.452 J1.667
X98.537 Y2.584 I-1.657 J1.302
X97.702 Y2.375 I-0.834 J1.564
X96.728 Y2.601 I0 J2.214
X95.973 Y3.246 I0.878 J1.794
X95.506 Y4.24 I2.594 J1.823
X95.36 Y5.335 I4.039 J1.095
X95.428 Y6.122 I4.634 J0
X95.641 Y6.881 I3.768 J-0.649
X95.971 Y7.488 I2.661 J-1.054
X96.455 Y7.976 I1.726 J-1.23
X97.049 Y8.267 I1.142 J-1.578
X97.707 Y8.361 I0.658 J-2.246
X98.594 Y8.132 I0 J-1.828
X99.289 Y7.524 I-1.06 J-1.913
G01 X99.289 Y8.229
X100.136 Y8.229
X100.136 Y3.169
G02 X100.123 Y2.584 I-13.268 J0
X100.072 Y2.001 I-6.636 J0.293
X100.003 Y1.608 I-4.826 J0.641
X99.878 Y1.231 I-1.849 J0.402
X99.54 Y0.718 I-1.772 J0.8
X99.062 Y0.33 I-1.546 J1.416
X98.399 Y0.073 I-1.106 J1.869
X97.687 Y0 I-0.712 J3.411
X96.858 Y0.105 I0 J3.313
X96.12 Y0.471 I0.499 J1.932
X95.669 Y1.104 I0.863 J1.093
X95.544 Y1.89 I2.108 J0.738
G00 Z5
G90
(Sketch 44)
X100.136 Y3.169 S1000 M03
Z2
G01 Z-0.1
X99.289 Y7.524
G00 Z5
G90
(Sketch 45)
X96.322 Y4.961 S1000 M03
Z2
G01 Z-0.1
G03 X96.376 Y4.517 I5.525 J0.446
X96.728 Y3.726 I1.682 J0.273
X97.2 Y3.339 I1.141 J0.913
X97.789 Y3.197 I0.589 J1.143
X98.377 Y3.339 I0 J1.284
X98.85 Y3.723 I-0.682 J1.324
X99.204 Y4.499 I-1.305 J1.063
X99.279 Y5.374 I-5.053 J0.874
X99.194 Y6.232 I-4.408 J0
X98.837 Y6.994 I-1.722 J-0.341
X98.364 Y7.389 I-1.234 J-0.998
X97.774 Y7.54 I-0.59 J-1.081
X97.195 Y7.392 I0 J-1.202
X96.733 Y7.003 I0.739 J-1.347
X96.386 Y6.251 I1.358 J-1.083
X96.304 Y5.407 I4.335 J-0.844
X96.322 Y4.961 I5.543 J0
G00 Z5
G90
(Sketch 46)
X101.231 Y5.963 S1000 M03
Z2
G01 Z-0.1
G02 X101.362 Y6.612 I4.948 J-0.66
X102.024 Y7.711 I2.266 J-0.616
X102.813 Y8.197 I1.611 J-1.731
X103.728 Y8.361 I0.915 J-2.467
X104.728 Y8.16 I0 J-2.577
X105.555 Y7.57 I-0.899 J-2.136
X106.108 Y6.554 I-1.868 J-1.675
X106.264 Y5.385 I-4.298 J-1.168
X106.207 Y4.473 I-7.305 J0
X105.95 Y3.607 I-2.76 J0.347
X105.567 Y3.037 I-2.202 J1.066
X105.037 Y2.601 I-1.71 J1.539
X104.407 Y2.333 I-1.287 J2.155
X103.728 Y2.243 I-0.678 J2.499
X102.721 Y2.442 I0 J2.653
X101.889 Y3.031 I0.86 J2.095
X101.333 Y4.089 I1.848 J1.645
X101.187 Y5.302 I4.962 J1.213
X101.231 Y5.963 I4.992 J0
G00 Z5
G90
(Sketch 47)
X105.299 Y4.879 S1000 M03
Z2
G01 Z-0.1
G03 X105.32 Y5.335 I-4.973 J0.455
X105.231 Y6.208 I-4.32 J0
X104.863 Y6.981 I-1.759 J-0.362
X104.357 Y7.389 I-1.223 J-0.998
X103.728 Y7.54 I-0.628 J-1.234
X103.095 Y7.391 I0 J-1.418
X102.585 Y6.983 I0.691 J-1.387
X102.216 Y6.193 I1.381 J-1.126
X102.131 Y5.302 I4.632 J-0.891
X102.216 Y4.41 I4.715 J0
X102.585 Y3.618 I1.762 J0.339
X103.095 Y3.209 I1.206 J0.978
X103.728 Y3.059 I0.633 J1.262
X104.359 Y3.21 I0 J1.39
X104.866 Y3.621 I-0.709 J1.393
X105.237 Y4.427 I-1.404 J1.134
X105.299 Y4.879 I-4.911 J0.907
G00 Z5
G90
(Sketch 48)
X112.381 Y2.386 S1000 M03
Z2
G01 Z-0.1
X112.249 Y3.263
X112.381 Y2.386
G02 X112.037 Y2.323 I-0.939 J4.129
X111.687 Y2.298 I-0.349 J2.461
X111.284 Y2.33 I0 J2.553
X110.912 Y2.469 I0.159 J0.996
X110.682 Y2.663 I0.545 J0.88
X110.524 Y2.918 I0.662 J0.585
X110.412 Y3.493 I1.43 J0.576
X110.412 Y4.09 I495.133 J0.596
G01 X110.412 Y7.457
X109.738 Y7.457
X109.738 Y8.229
X110.412 Y8.229
X110.412 Y9.679
X111.325 Y10.274
X111.325 Y8.229
X112.249 Y8.229
X112.249 Y7.457
X111.325 Y7.457
X111.325 Y4.034
G02 X111.324 Y3.757 I-24.945 J0
G03 X111.374 Y3.489 I0.7 J-0.007
X111.438 Y3.38 I0.383 J0.153
X111.532 Y3.296 I0.321 J0.263
X111.682 Y3.237 I0.213 J0.326
X111.846 Y3.224 I0.163 J0.997
X112.048 Y3.236 I0 J1.767
X112.249 Y3.263 I-0.613 J5.33
G00 Z5
G90
(Sketch 49)
X111.325 Y4.034 S1000 M03
Z2
G01 Z-0.1
X110.412 Y4.09
G00 Z5
G90
(Sketch 50)
X112.844 Y5.963 S1000 M03
Z2
G01 Z-0.1
G02 X112.975 Y6.612 I4.948 J-0.66
X113.636 Y7.711 I2.266 J-0.616
X114.425 Y8.197 I1.611 J-1.731
X115.341 Y8.361 I0.915 J-2.467
X116.34 Y8.16 I0 J-2.577
X117.167 Y7.57 I-0.899 J-2.136
X117.72 Y6.554 I-1.868 J-1.675
X117.876 Y5.385 I-4.298 J-1.168
X117.819 Y4.473 I-7.305 J0
X117.563 Y3.607 I-2.76 J0.347
X117.179 Y3.037 I-2.202 J1.066
X116.649 Y2.601 I-1.71 J1.539
X116.019 Y2.333 I-1.287 J2.155
X115.341 Y2.243 I-0.678 J2.499
X114.333 Y2.442 I0 J2.653
X113.501 Y3.031 I0.86 J2.095
X112.946 Y4.089 I1.848 J1.645
X112.8 Y5.302 I4.962 J1.213
X112.844 Y5.963 I4.992 J0
G00 Z5
G90
(Sketch 51)
X116.912 Y4.879 S1000 M03
Z2
G01 Z-0.1
G03 X116.932 Y5.335 I-4.973 J0.455
X116.843 Y6.208 I-4.32 J0
X116.476 Y6.981 I-1.759 J-0.362
X115.969 Y7.389 I-1.223 J-0.998
X115.341 Y7.54 I-0.628 J-1.234
X114.708 Y7.391 I0 J-1.418
X114.198 Y6.983 I0.691 J-1.387
X113.829 Y6.193 I1.381 J-1.126
X113.744 Y5.302 I4.632 J-0.891
X113.829 Y4.41 I4.715 J0
X114.198 Y3.618 I1.762 J0.339
X114.707 Y3.209 I1.206 J0.978
X115.341 Y3.059 I0.633 J1.262
X115.971 Y3.21 I0 J1.39
X116.478 Y3.621 I-0.709 J1.393
X116.849 Y4.427 I-1.404 J1.134
X116.912 Y4.879 I-4.911 J0.908
G00 Z5
G90
(Sketch 52)
X129.11 Y5.963 S1000 M03
Z2
G01 Z-0.1
G02 X129.241 Y6.612 I4.948 J-0.66
X129.902 Y7.711 I2.266 J-0.616
X130.691 Y8.197 I1.611 J-1.731
X131.607 Y8.361 I0.915 J-2.467
X132.606 Y8.16 I0 J-2.577
X133.433 Y7.57 I-0.899 J-2.136
X133.986 Y6.554 I-1.868 J-1.675
X134.142 Y5.385 I-4.298 J-1.168
X134.085 Y4.473 I-7.305 J0
X133.829 Y3.607 I-2.76 J0.347
X133.445 Y3.037 I-2.202 J1.066
X132.915 Y2.601 I-1.71 J1.539
X132.285 Y2.333 I-1.287 J2.155
X131.607 Y2.243 I-0.678 J2.499
X130.599 Y2.442 I0 J2.653
X129.767 Y3.031 I0.86 J2.095
X129.212 Y4.089 I1.848 J1.645
X129.066 Y5.302 I4.962 J1.213
X129.11 Y5.963 I4.992 J0
G00 Z5
G90
(Sketch 53)
X122.004 Y6.416 S1000 M03
Z2
G01 Z-0.1
X122.004 Y10.456
X122.994 Y10.456
X122.994 Y7.138
X126.882 Y7.138
X126.882 Y10.456
X127.872 Y10.456
X127.872 Y2.375
X126.882 Y2.375
X126.882 Y6.184
X122.994 Y6.184
X122.994 Y2.375
X122.004 Y2.375
X122.004 Y6.416
G00 Z5
G90
(Sketch 54)
X133.178 Y4.879 S1000 M03
Z2
G01 Z-0.1
G03 X133.198 Y5.335 I-4.973 J0.455
X133.109 Y6.208 I-4.32 J0
X132.742 Y6.981 I-1.759 J-0.362
X132.235 Y7.389 I-1.223 J-0.998
X131.607 Y7.54 I-0.628 J-1.234
X130.974 Y7.391 I0 J-1.418
X130.464 Y6.983 I0.691 J-1.387
X130.094 Y6.193 I1.381 J-1.126
X130.01 Y5.302 I4.632 J-0.891
X130.095 Y4.41 I4.715 J0
X130.464 Y3.618 I1.762 J0.339
X130.973 Y3.209 I1.206 J0.978
X131.607 Y3.059 I0.633 J1.262
X132.237 Y3.21 I0 J1.39
X132.744 Y3.621 I-0.709 J1.393
X133.115 Y4.427 I-1.404 J1.134
X133.178 Y4.879 I-4.911 J0.908
G00 Z5
G90
(Sketch 55)
X136.045 Y7.408 S1000 M03
Z2
G01 Z-0.1
X135.224 Y2.375
X135.224 Y8.229
X136.045 Y8.229
X136.045 Y7.408
G02 X136.343 Y7.795 I1.754 J-1.041
X136.724 Y8.1 I1.445 J-1.416
X137.187 Y8.297 I0.886 J-1.433
X137.688 Y8.361 I0.501 J-1.932
X138.206 Y8.302 I0 J-2.268
X138.676 Y8.091 I-0.309 J-1.322
X139.008 Y7.759 I-0.778 J-1.11
X139.219 Y7.336 I-1.313 J-0.919
X139.545 Y7.765 I2.508 J-1.572
X139.959 Y8.105 I1.419 J-1.302
X140.408 Y8.298 I0.887 J-1.448
X140.893 Y8.361 I0.485 J-1.814
X141.57 Y8.25 I0 J-2.11
X142.132 Y7.879 I-0.427 J-1.26
X142.483 Y7.188 I-1.111 J-0.998
X142.566 Y6.394 I-3.774 J-0.794
G01 X142.566 Y2.375
X141.653 Y2.375
X141.653 Y6.063
G03 X141.643 Y6.497 I-9.86 J0
X141.564 Y6.92 I-1.515 J-0.066
X141.436 Y7.157 I-0.774 J-0.264
X141.24 Y7.342 I-0.682 J-0.528
X140.977 Y7.463 I-0.493 J-0.725
X140.688 Y7.502 I-0.288 J-1.056
X140.17 Y7.396 I0 J-1.319
X139.739 Y7.091 I0.492 J-1.153
X139.43 Y6.48 I0.928 J-0.853
X139.362 Y5.776 I3.585 J-0.704
G01 X139.362 Y2.375
X138.443 Y2.375
X138.443 Y6.179
G03 X138.404 Y6.697 I-3.465 J0
X138.219 Y7.171 I-1.136 J-0.172
X137.899 Y7.425 I-0.564 J-0.383
X137.484 Y7.502 I-0.414 J-1.08
X137.11 Y7.445 I0 J-1.261
X136.767 Y7.281 I0.391 J-1.258
X136.477 Y6.999 I0.623 J-0.93
X136.29 Y6.636 I1.185 J-0.84
X136.165 Y6.033 I2.227 J-0.776
X136.142 Y5.412 I8.414 J-0.62
G01 X136.142 Y2.375
X135.224 Y2.375
X136.142 Y5.412
G00 Z5
G90
(Sketch 56)
X141.653 Y6.063 S1000 M03
Z2
G01 Z-0.1
X142.566 Y6.394
G00 Z5
G90
(Sketch 57)
X138.443 Y6.179 S1000 M03
Z2
G01 Z-0.1
X139.362 Y5.776
G00 Z5
G90
(Sketch 58)
X148.597 Y4.134 S1000 M03
Z2
G01 Z-0.1
X147.648 Y4.26
X148.597 Y4.134
G02 X148.292 Y3.366 I-3.013 J0.752
X147.765 Y2.739 I-1.919 J1.077
X147.037 Y2.358 I-1.287 J1.575
X146.214 Y2.243 I-0.822 J2.877
X145.181 Y2.438 I0 J2.839
X144.329 Y3.034 I0.801 J2.052
X143.782 Y4.068 I1.882 J1.657
X143.632 Y5.253 I4.618 J1.184
X143.782 Y6.474 I5.068 J0
X144.337 Y7.546 I2.521 J-0.626
X145.159 Y8.152 I1.744 J-1.505
X146.163 Y8.361 I1.004 J-2.3
X147.139 Y8.155 I0 J-2.411
X147.939 Y7.562 I-0.917 J-2.072
X148.482 Y6.511 I-1.928 J-1.661
X148.628 Y5.313 I-4.845 J-1.198
X148.626 Y5.181 I-5.51 J0
X148.622 Y5.049 I-26.589 J0.639
G01 X144.581 Y5.049
G03 X144.711 Y4.26 I3.627 J0.191
X145.087 Y3.571 I1.685 J0.472
X145.598 Y3.193 I1.144 J1.014
X146.219 Y3.059 I0.621 J1.365
X146.676 Y3.129 I0 J1.523
X147.082 Y3.345 I-0.373 J1.186
X147.429 Y3.758 I-0.867 J1.08
X147.648 Y4.26 I-2.65 J1.457
G00 Z5
G90
(Sketch 59)
X144.581 Y5.049 S1000 M03
Z2
G01 Z-0.1
X148.622 Y5.049
G00 Z5
G90
(Sketch 60)
X147.658 Y5.864 S1000 M03
Z2
G01 Z-0.1
G03 X147.563 Y6.449 I-3.776 J-0.313
X147.311 Y6.972 I-1.355 J-0.33
X146.808 Y7.392 I-1.182 J-0.905
X146.173 Y7.546 I-0.634 J-1.237
X145.594 Y7.427 I0 J-1.47
X145.11 Y7.088 I0.571 J-1.333
X144.765 Y6.522 I1.162 J-1.095
X144.633 Y5.864 I2.284 J-0.802
G01 X147.658 Y5.864
X144.633 Y5.864
G00 Z5
G90
(Sketch 61)
X154.194 Y4.393 S1000 M03
Z2
G01 Z-0.1
X153.291 Y4.519
X154.194 Y4.393
G02 X153.947 Y3.534 I-3.297 J0.483
X153.436 Y2.813 I-2.014 J0.886
X152.744 Y2.386 I-1.401 J1.497
X151.939 Y2.243 I-0.804 J2.186
X150.956 Y2.442 I0 J2.529
X150.151 Y3.028 I0.847 J2.008
X149.614 Y4.081 I1.887 J1.624
X149.475 Y5.28 I5.077 J1.199
X149.539 Y6.126 I5.535 J0
X149.765 Y6.939 I3.56 J-0.55
X150.123 Y7.546 I2.269 J-0.928
X150.651 Y8.006 I1.544 J-1.24
X151.273 Y8.271 I1.281 J-2.141
X151.944 Y8.361 I0.671 J-2.453
X152.713 Y8.248 I0 J-2.674
X153.388 Y7.879 I-0.533 J-1.774
X153.864 Y7.261 I-1.248 J-1.453
X154.107 Y6.509 I-2.6 J-1.258
G01 X153.214 Y6.361
G03 X153.056 Y6.843 I-2.363 J-0.511
X152.763 Y7.248 I-1.134 J-0.511
X152.4 Y7.47 I-0.747 J-0.813
X151.98 Y7.546 I-0.42 J-1.132
X151.355 Y7.405 I0 J-1.455
X150.852 Y7.008 I0.618 J-1.301
X150.493 Y6.208 I1.342 J-1.083
X150.418 Y5.308 I5.405 J-0.9
X150.487 Y4.402 I5.986 J0
X150.837 Y3.593 I1.719 J0.263
X151.321 Y3.2 I1.102 J0.862
X151.929 Y3.059 I0.607 J1.234
X152.417 Y3.149 I0 J1.362
X152.832 Y3.417 I-0.431 J1.123
X153.151 Y3.924 I-0.927 J0.937
X153.291 Y4.519 I-2.851 J0.985
G00 Z5
G90
(Sketch 62)
X153.214 Y6.361 S1000 M03
Z2
G01 Z-0.1
X154.107 Y6.509
G00 Z5
G90
(Sketch 63)
X154.682 Y5.963 S1000 M03
Z2
G01 Z-0.1
G02 X154.813 Y6.612 I4.948 J-0.66
X155.475 Y7.711 I2.266 J-0.616
X156.264 Y8.197 I1.611 J-1.731
X157.179 Y8.361 I0.915 J-2.467
X158.179 Y8.16 I0 J-2.577
X159.006 Y7.57 I-0.899 J-2.136
X159.559 Y6.554 I-1.868 J-1.675
X159.715 Y5.385 I-4.298 J-1.168
X159.658 Y4.473 I-7.305 J0
X159.401 Y3.607 I-2.76 J0.347
X159.018 Y3.037 I-2.202 J1.066
X158.488 Y2.601 I-1.71 J1.539
X157.858 Y2.333 I-1.287 J2.155
X157.179 Y2.243 I-0.678 J2.499
X156.172 Y2.442 I0 J2.653
X155.34 Y3.031 I0.86 J2.095
X154.784 Y4.089 I1.848 J1.645
X154.638 Y5.302 I4.962 J1.213
X154.682 Y5.963 I4.992 J0
G00 Z5
G90
(Sketch 64)
X158.75 Y4.879 S1000 M03
Z2
G01 Z-0.1
G03 X158.771 Y5.335 I-4.973 J0.455
X158.682 Y6.208 I-4.32 J0
X158.314 Y6.981 I-1.759 J-0.362
X157.808 Y7.389 I-1.223 J-0.998
X157.179 Y7.54 I-0.628 J-1.234
X156.546 Y7.391 I0 J-1.418
X156.036 Y6.983 I0.691 J-1.387
X155.667 Y6.193 I1.381 J-1.126
X155.582 Y5.302 I4.632 J-0.891
X155.667 Y4.41 I4.715 J0
X156.036 Y3.618 I1.762 J0.339
X156.546 Y3.209 I1.206 J0.978
X157.179 Y3.059 I0.633 J1.262
X157.81 Y3.21 I0 J1.39
X158.317 Y3.621 I-0.709 J1.393
X158.688 Y4.427 I-1.404 J1.134
X158.75 Y4.879 I-4.911 J0.908
G00 Z5
G90
(Sketch 65)
X161.618 Y7.408 S1000 M03
Z2
G01 Z-0.1
X160.796 Y2.375
X160.796 Y8.229
X161.618 Y8.229
X161.618 Y7.408
G02 X161.915 Y7.795 I1.754 J-1.041
X162.296 Y8.1 I1.445 J-1.416
X162.76 Y8.297 I0.886 J-1.433
X163.261 Y8.361 I0.501 J-1.932
X163.778 Y8.302 I0 J-2.268
X164.248 Y8.091 I-0.309 J-1.322
X164.58 Y7.759 I-0.778 J-1.11
X164.791 Y7.336 I-1.313 J-0.919
X165.118 Y7.765 I2.508 J-1.572
X165.531 Y8.105 I1.419 J-1.302
X165.98 Y8.298 I0.887 J-1.448
X166.465 Y8.361 I0.485 J-1.814
X167.143 Y8.25 I0 J-2.11
X167.705 Y7.879 I-0.427 J-1.26
X168.056 Y7.188 I-1.111 J-0.998
X168.138 Y6.394 I-3.774 J-0.794
G01 X168.138 Y2.375
X167.225 Y2.375
X167.225 Y6.063
G03 X167.216 Y6.497 I-9.86 J0
X167.136 Y6.92 I-1.515 J-0.066
X167.008 Y7.157 I-0.774 J-0.264
X166.812 Y7.342 I-0.682 J-0.528
X166.549 Y7.463 I-0.493 J-0.725
X166.261 Y7.502 I-0.288 J-1.056
X165.743 Y7.396 I0 J-1.319
X165.312 Y7.091 I0.492 J-1.153
X165.003 Y6.48 I0.928 J-0.853
X164.934 Y5.776 I3.585 J-0.704
G01 X164.934 Y2.375
X164.016 Y2.375
X164.016 Y6.179
G03 X163.977 Y6.697 I-3.465 J0
X163.791 Y7.171 I-1.136 J-0.172
X163.471 Y7.425 I-0.564 J-0.383
X163.057 Y7.502 I-0.414 J-1.08
X162.682 Y7.445 I0 J-1.261
X162.34 Y7.281 I0.391 J-1.258
X162.05 Y6.999 I0.623 J-0.93
X161.863 Y6.636 I1.185 J-0.84
X161.738 Y6.033 I2.228 J-0.776
X161.715 Y5.412 I8.414 J-0.62
G01 X161.715 Y2.375
X160.796 Y2.375
X161.715 Y5.412
G00 Z5
G90
(Sketch 66)
X167.225 Y6.063 S1000 M03
Z2
G01 Z-0.1
X168.138 Y6.394
G00 Z5
G90
(Sketch 67)
X164.016 Y6.179 S1000 M03
Z2
G01 Z-0.1
X164.934 Y5.776
G00 Z5
G90
(Sketch 68)
X169.516 Y9.886 S1000 M03
Z2
G01 Z-0.1
X169.516 Y10.456
X170.435 Y10.456
X170.435 Y9.315
X169.516 Y9.315
X169.516 Y9.886
G00 Z5
G90
(Sketch 69)
X169.516 Y5.302 S1000 M03
Z2
G01 Z-0.1
X169.516 Y8.229
X170.435 Y8.229
X170.435 Y2.375
X169.516 Y2.375
X169.516 Y5.302
G00 Z5
G90
(Sketch 70)
X172.664 Y7.397 S1000 M03
Z2
G01 Z-0.1
X171.838 Y2.375
X171.838 Y8.229
X172.664 Y8.229
X172.664 Y7.397
G02 X172.984 Y7.806 I2.026 J-1.254
X173.394 Y8.12 I1.287 J-1.254
X173.875 Y8.304 I0.873 J-1.561
X174.389 Y8.361 I0.514 J-2.286
X174.85 Y8.315 I0 J-2.325
X175.289 Y8.171 I-0.392 J-1.941
X175.633 Y7.964 I-0.765 J-1.653
X175.904 Y7.672 I-0.732 J-0.955
X176.083 Y7.321 I-1.449 J-0.958
X176.19 Y6.939 I-2.232 J-0.831
X176.237 Y6.459 I-2.817 J-0.521
X176.241 Y5.975 I-33.811 J-0.484
G01 X176.241 Y2.375
X175.322 Y2.375
X175.322 Y5.936
G03 X175.308 Y6.396 I-7.112 J0
X175.215 Y6.843 I-1.643 J-0.106
X175.065 Y7.113 I-0.884 J-0.315
X174.835 Y7.322 I-0.77 J-0.615
X174.529 Y7.459 I-0.568 J-0.866
X174.195 Y7.502 I-0.334 J-1.276
X173.65 Y7.397 I0 J-1.476
X173.182 Y7.099 I0.543 J-1.369
X172.983 Y6.831 I0.652 J-0.691
X172.863 Y6.516 I1.598 J-0.794
X172.777 Y6.049 I2.502 J-0.698
X172.756 Y5.572 I5.345 J-0.476
G01 X172.756 Y2.375
X171.838 Y2.375
X172.756 Y5.572
G00 Z5
G90
(Sketch 71)
X175.322 Y5.936 S1000 M03
Z2
G01 Z-0.1
X176.241 Y5.975
G00 Z5
G90
(Sketch 72)
X178.379 Y1.747 S1000 M03
Z2
G01 Z-0.1
X177.486 Y1.89
X178.379 Y1.747
G03 X178.473 Y1.387 I1.414 J0.177
X178.69 Y1.096 I0.666 J0.271
X179.129 Y0.88 I0.702 J0.871
X179.624 Y0.821 I0.494 J2.041
X180.145 Y0.877 I0 J2.456
X180.608 Y1.096 I-0.239 J1.105
X180.906 Y1.442 I-0.758 J0.955
X181.078 Y1.868 I-1.418 J0.818
X181.149 Y2.501 I-2.588 J0.609
G02 X181.144 Y3.141 I195.173 J1.666
X180.479 Y2.584 I-1.657 J1.302
X179.644 Y2.375 I-0.834 J1.564
X178.67 Y2.601 I0 J2.214
X177.914 Y3.246 I0.878 J1.794
X177.448 Y4.24 I2.594 J1.823
X177.302 Y5.335 I4.039 J1.095
X177.369 Y6.122 I4.634 J0
X177.583 Y6.881 I3.768 J-0.649
X177.913 Y7.488 I2.661 J-1.054
X178.397 Y7.976 I1.726 J-1.23
X178.991 Y8.267 I1.142 J-1.578
X179.649 Y8.361 I0.658 J-2.246
X180.535 Y8.132 I0 J-1.828
X181.231 Y7.524 I-1.06 J-1.913
G01 X181.231 Y8.229
X182.078 Y8.229
X182.078 Y3.169
G02 X182.065 Y2.584 I-13.269 J0
X182.013 Y2.001 I-6.636 J0.293
X181.945 Y1.608 I-4.826 J0.641
X181.82 Y1.231 I-1.849 J0.402
X181.482 Y0.718 I-1.772 J0.8
X181.004 Y0.33 I-1.546 J1.416
X180.341 Y0.073 I-1.106 J1.869
X179.629 Y0 I-0.712 J3.411
X178.8 Y0.105 I0 J3.313
X178.062 Y0.471 I0.499 J1.932
X177.611 Y1.104 I0.863 J1.093
X177.486 Y1.89 I2.108 J0.738
G00 Z5
G90
(Sketch 73)
X182.078 Y3.169 S1000 M03
Z2
G01 Z-0.1
X181.231 Y7.524
G00 Z5
G90
(Sketch 74)
X178.264 Y4.961 S1000 M03
Z2
G01 Z-0.1
G03 X178.318 Y4.517 I5.525 J0.446
X178.67 Y3.726 I1.682 J0.273
X179.142 Y3.339 I1.141 J0.913
X179.731 Y3.197 I0.589 J1.143
X180.319 Y3.339 I0 J1.284
X180.792 Y3.723 I-0.682 J1.324
X181.145 Y4.499 I-1.305 J1.063
X181.221 Y5.374 I-5.053 J0.874
X181.136 Y6.232 I-4.408 J0
X180.779 Y6.994 I-1.722 J-0.341
X180.306 Y7.389 I-1.234 J-0.998
X179.715 Y7.54 I-0.59 J-1.081
X179.137 Y7.392 I0 J-1.202
X178.675 Y7.003 I0.739 J-1.347
X178.327 Y6.251 I1.358 J-1.083
X178.246 Y5.407 I4.335 J-0.844
X178.264 Y4.961 I5.543 J0
G00 Z5
G90
(Sketch 75)
X185.19 Y4.365 S1000 M03
Z2
G01 Z-0.1
G02 X185.187 Y4.514 I36.454 J0.933
X185.185 Y4.663 I6.916 J0.148
X185.218 Y5.175 I3.996 J0
X185.338 Y5.672 I2.333 J-0.301
X185.493 Y6.008 I1.85 J-0.649
X185.7 Y6.316 I2.5 J-1.454
X186.017 Y6.674 I2.88 J-2.232
X186.361 Y7.008 I17.946 J-18.133
G03 X186.702 Y7.347 I-7.712 J8.09
X186.981 Y7.733 I-1.23 J1.184
X187.088 Y8.019 I-1.064 J0.563
X187.124 Y8.323 I-1.285 J0.303
X187.013 Y8.871 I-1.411 J0
X186.706 Y9.34 I-1.43 J-0.602
X186.238 Y9.664 I-1.023 J-0.976
X185.68 Y9.778 I-0.557 J-1.306
X185.149 Y9.677 I0 J-1.446
X184.7 Y9.381 I0.478 J-1.214
X184.346 Y8.809 I1.067 J-1.057
X184.185 Y8.141 I3.529 J-1.204
G01 X183.241 Y8.262
G02 X183.471 Y9.202 I3.779 J-0.426
X183.999 Y9.993 I2.025 J-0.779
X184.768 Y10.452 I1.392 J-1.46
X185.665 Y10.594 I0.896 J-2.76
X186.61 Y10.442 I0 J-3.01
X187.415 Y9.949 I-0.65 J-1.966
X187.898 Y9.234 I-1.545 J-1.565
X188.068 Y8.389 I-2.015 J-0.845
X188.011 Y7.887 I-2.25 J0
X187.838 Y7.413 I-1.971 J0.451
X187.436 Y6.835 I-2.369 J1.218
X186.94 Y6.327 I-7.758 J7.083
G03 X186.629 Y6.025 I20.961 J-21.891
X186.353 Y5.694 I1.525 J-1.548
X186.231 Y5.468 I1.106 J-0.747
X186.149 Y5.225 I1.513 J-0.643
X186.087 Y4.798 I2.103 J-0.527
X186.073 Y4.365 I14.777 J-0.686
G01 X185.19 Y4.365
X186.073 Y4.365
G00 Z5
G90
(Sketch 76)
X183.241 Y8.262 S1000 M03
Z2
G01 Z-0.1
X184.185 Y8.141
G00 Z5
G90
(Sketch 77)
X185.134 Y2.94 S1000 M03
Z2
G01 Z-0.1
X185.134 Y3.505
X186.18 Y3.505
X186.18 Y2.375
X185.134 Y2.375
X185.134 Y2.94
G00 Z5
T0 M06 M02
