(Created with emc2b post processor 2014/09/21 05:29)
(tool change to 1.2 mm End Mill)
T1 M06 G43
G17 G90 G21
(Out)
G00 X31.607 Y64.37 S1000 M03
Z8
G01 Z2.225 F100
G02 X31.614 Y64.363 I0.003 J-0.003
G01 X-0.425 Y32.168
G03 X-0.6 Y31.745 I0.425 J-0.423
G01 X-0.6 Y2.158
G03 X-0.424 Y1.734 I0.6 J0
G01 X1.734 Y-0.424
G03 X2.158 Y-0.6 I0.424 J0.424
G01 X65.404 Y-0.6
G03 X65.829 Y-0.424 I0 J0.6
G01 X67.988 Y1.734
G03 X68.163 Y2.158 I-0.424 J0.424
G01 X68.163 Y22.966
G03 X68.04 Y23.331 I-0.6 J0
G02 X72.812 Y28.095 I2.698 J2.068
G03 X73.178 Y27.97 I0.365 J0.475
G01 X93.978 Y27.97
G03 X94.403 Y28.146 I0 J0.6
G01 X96.562 Y30.305
G03 X96.737 Y30.729 I-0.424 J0.424
G01 X96.737 Y93.975
G03 X96.562 Y94.399 I-0.6 J0
G01 X94.403 Y96.558
G03 X93.978 Y96.734 I-0.424 J-0.424
G01 X64.079 Y96.734
G03 X63.654 Y96.557 I0 J-0.6
G01 X31.614 Y64.363
G02 X31.607 Y64.37 I-0.003 J0.003
G01 Z1.45
G02 X31.614 Y64.363 I0.003 J-0.003
G01 X-0.425 Y32.168
G03 X-0.6 Y31.745 I0.425 J-0.423
G01 X-0.6 Y2.158
G03 X-0.424 Y1.734 I0.6 J0
G01 X1.734 Y-0.424
G03 X2.158 Y-0.6 I0.424 J0.424
G01 X65.404 Y-0.6
G03 X65.829 Y-0.424 I0 J0.6
G01 X67.988 Y1.734
G03 X68.163 Y2.158 I-0.424 J0.424
G01 X68.163 Y22.966
G03 X68.04 Y23.331 I-0.6 J0
G02 X72.812 Y28.095 I2.698 J2.068
G03 X73.178 Y27.97 I0.365 J0.475
G01 X93.978 Y27.97
G03 X94.403 Y28.146 I0 J0.6
G01 X96.562 Y30.305
G03 X96.737 Y30.729 I-0.424 J0.424
G01 X96.737 Y93.975
G03 X96.562 Y94.399 I-0.6 J0
G01 X94.403 Y96.558
G03 X93.978 Y96.734 I-0.424 J-0.424
G01 X64.079 Y96.734
G03 X63.654 Y96.557 I0 J-0.6
G01 X31.614 Y64.363
G02 X31.607 Y64.37 I-0.003 J0.003
G01 Z0.675
G02 X31.614 Y64.363 I0.003 J-0.003
G01 X-0.425 Y32.168
G03 X-0.6 Y31.745 I0.425 J-0.423
G01 X-0.6 Y2.158
G03 X-0.424 Y1.734 I0.6 J0
G01 X1.734 Y-0.424
G03 X2.158 Y-0.6 I0.424 J0.424
G01 X65.404 Y-0.6
G03 X65.829 Y-0.424 I0 J0.6
G01 X67.988 Y1.734
G03 X68.163 Y2.158 I-0.424 J0.424
G01 X68.163 Y22.966
G03 X68.04 Y23.331 I-0.6 J0
G02 X72.812 Y28.095 I2.698 J2.068
G03 X73.178 Y27.97 I0.365 J0.475
G01 X93.978 Y27.97
G03 X94.403 Y28.146 I0 J0.6
G01 X96.562 Y30.305
G03 X96.737 Y30.729 I-0.424 J0.424
G01 X96.737 Y93.975
G03 X96.562 Y94.399 I-0.6 J0
G01 X94.403 Y96.558
G03 X93.978 Y96.734 I-0.424 J-0.424
G01 X64.079 Y96.734
G03 X63.654 Y96.557 I0 J-0.6
G01 X31.614 Y64.363
G02 X31.607 Y64.37 I-0.003 J0.003
G01 Z-0.1
G02 X31.614 Y64.363 I0.003 J-0.003
G01 X-0.425 Y32.168
G03 X-0.6 Y31.745 I0.425 J-0.423
G01 X-0.6 Y2.158
G03 X-0.424 Y1.734 I0.6 J0
G01 X1.734 Y-0.424
G03 X2.158 Y-0.6 I0.424 J0.424
G01 X65.404 Y-0.6
G03 X65.829 Y-0.424 I0 J0.6
G01 X67.988 Y1.734
G03 X68.163 Y2.158 I-0.424 J0.424
G01 X68.163 Y22.966
G03 X68.04 Y23.331 I-0.6 J0
G02 X72.812 Y28.095 I2.698 J2.068
G03 X73.178 Y27.97 I0.365 J0.475
G01 X93.978 Y27.97
G03 X94.403 Y28.146 I0 J0.6
G01 X96.562 Y30.305
G03 X96.737 Y30.729 I-0.424 J0.424
G01 X96.737 Y93.975
G03 X96.562 Y94.399 I-0.6 J0
G01 X94.403 Y96.558
G03 X93.978 Y96.734 I-0.424 J-0.424
G01 X64.079 Y96.734
G03 X63.654 Y96.557 I0 J-0.6
G01 X31.614 Y64.363
G02 X31.607 Y64.37 I-0.003 J0.003
G00 Z5
G90
(Sketch 0)
X9.524 Y14.16 S1000 M03
Z8
G01 Z2.225
G02 X9.524 Y14.17 I0 J0.005
X10.995 Y12.699 I0 J-1.47
X8.054 Y12.699 I-1.47 J0
X9.524 Y14.17 I1.47 J0
X9.524 Y14.16 I0 J-0.005
G01 Z1.45
G02 X9.524 Y14.17 I0 J0.005
X10.995 Y12.699 I0 J-1.47
X8.054 Y12.699 I-1.47 J0
X9.524 Y14.17 I1.47 J0
X9.524 Y14.16 I0 J-0.005
G01 Z0.675
G02 X9.524 Y14.17 I0 J0.005
X10.995 Y12.699 I0 J-1.47
X8.054 Y12.699 I-1.47 J0
X9.524 Y14.17 I1.47 J0
X9.524 Y14.16 I0 J-0.005
G01 Z-0.1
G02 X9.524 Y14.17 I0 J0.005
X10.995 Y12.699 I0 J-1.47
X8.054 Y12.699 I-1.47 J0
X9.524 Y14.17 I1.47 J0
X9.524 Y14.16 I0 J-0.005
G00 Z5
(Sketch 0)
G90 X22.224 Y11.239
Z8
G01 Z2.225
G02 X22.224 Y11.229 I0 J-0.005
X20.754 Y12.699 I0 J1.47
X23.695 Y12.699 I1.47 J0
X22.224 Y11.229 I-1.47 J0
X22.224 Y11.239 I0 J0.005
G01 Z1.45
G02 X22.224 Y11.229 I0 J-0.005
X20.754 Y12.699 I0 J1.47
X23.695 Y12.699 I1.47 J0
X22.224 Y11.229 I-1.47 J0
X22.224 Y11.239 I0 J0.005
G01 Z0.675
G02 X22.224 Y11.229 I0 J-0.005
X20.754 Y12.699 I0 J1.47
X23.695 Y12.699 I1.47 J0
X22.224 Y11.229 I-1.47 J0
X22.224 Y11.239 I0 J0.005
G01 Z-0.1
G02 X22.224 Y11.229 I0 J-0.005
X20.754 Y12.699 I0 J1.47
X23.695 Y12.699 I1.47 J0
X22.224 Y11.229 I-1.47 J0
X22.224 Y11.239 I0 J0.005
G00 Z5
(Sketch 0)
G90 X34.924 Y11.239
Z8
G01 Z2.225
G02 X34.924 Y11.229 I0 J-0.005
X33.454 Y12.699 I0 J1.47
X36.395 Y12.699 I1.47 J0
X34.924 Y11.229 I-1.47 J0
X34.924 Y11.239 I0 J0.005
G01 Z1.45
G02 X34.924 Y11.229 I0 J-0.005
X33.454 Y12.699 I0 J1.47
X36.395 Y12.699 I1.47 J0
X34.924 Y11.229 I-1.47 J0
X34.924 Y11.239 I0 J0.005
G01 Z0.675
G02 X34.924 Y11.229 I0 J-0.005
X33.454 Y12.699 I0 J1.47
X36.395 Y12.699 I1.47 J0
X34.924 Y11.229 I-1.47 J0
X34.924 Y11.239 I0 J0.005
G01 Z-0.1
G02 X34.924 Y11.229 I0 J-0.005
X33.454 Y12.699 I0 J1.47
X36.395 Y12.699 I1.47 J0
X34.924 Y11.229 I-1.47 J0
X34.924 Y11.239 I0 J0.005
G00 Z5
(Sketch 0)
G90 X47.624 Y11.239
Z8
G01 Z2.225
G02 X47.624 Y11.229 I0 J-0.005
X46.154 Y12.699 I0 J1.47
X49.095 Y12.699 I1.47 J0
X47.624 Y11.229 I-1.47 J0
X47.624 Y11.239 I0 J0.005
G01 Z1.45
G02 X47.624 Y11.229 I0 J-0.005
X46.154 Y12.699 I0 J1.47
X49.095 Y12.699 I1.47 J0
X47.624 Y11.229 I-1.47 J0
X47.624 Y11.239 I0 J0.005
G01 Z0.675
G02 X47.624 Y11.229 I0 J-0.005
X46.154 Y12.699 I0 J1.47
X49.095 Y12.699 I1.47 J0
X47.624 Y11.229 I-1.47 J0
X47.624 Y11.239 I0 J0.005
G01 Z-0.1
G02 X47.624 Y11.229 I0 J-0.005
X46.154 Y12.699 I0 J1.47
X49.095 Y12.699 I1.47 J0
X47.624 Y11.229 I-1.47 J0
X47.624 Y11.239 I0 J0.005
G00 Z5
(Sketch 0)
G90 X60.324 Y14.16
Z8
G01 Z2.225
G02 X60.324 Y14.17 I0 J0.005
X61.795 Y12.699 I0 J-1.47
X58.854 Y12.699 I-1.47 J0
X60.324 Y14.17 I1.47 J0
X60.324 Y14.16 I0 J-0.005
G01 Z1.45
G02 X60.324 Y14.17 I0 J0.005
X61.795 Y12.699 I0 J-1.47
X58.854 Y12.699 I-1.47 J0
X60.324 Y14.17 I1.47 J0
X60.324 Y14.16 I0 J-0.005
G01 Z0.675
G02 X60.324 Y14.17 I0 J0.005
X61.795 Y12.699 I0 J-1.47
X58.854 Y12.699 I-1.47 J0
X60.324 Y14.17 I1.47 J0
X60.324 Y14.16 I0 J-0.005
G01 Z-0.1
G02 X60.324 Y14.17 I0 J0.005
X61.795 Y12.699 I0 J-1.47
X58.854 Y12.699 I-1.47 J0
X60.324 Y14.17 I1.47 J0
X60.324 Y14.16 I0 J-0.005
G00 Z5
(Sketch 0)
G90 X63.165 Y29.862
Z8
G01 Z2.225
G02 X63.165 Y29.852 I0 J-0.005
X60.044 Y32.973 I0 J3.121
X66.286 Y32.973 I3.121 J0
X63.165 Y29.852 I-3.121 J0
X63.165 Y29.862 I0 J0.005
G01 Z1.45
G02 X63.165 Y29.852 I0 J-0.005
X60.044 Y32.973 I0 J3.121
X66.286 Y32.973 I3.121 J0
X63.165 Y29.852 I-3.121 J0
X63.165 Y29.862 I0 J0.005
G01 Z0.675
G02 X63.165 Y29.852 I0 J-0.005
X60.044 Y32.973 I0 J3.121
X66.286 Y32.973 I3.121 J0
X63.165 Y29.852 I-3.121 J0
X63.165 Y29.862 I0 J0.005
G01 Z-0.1
G02 X63.165 Y29.852 I0 J-0.005
X60.044 Y32.973 I0 J3.121
X66.286 Y32.973 I3.121 J0
X63.165 Y29.852 I-3.121 J0
X63.165 Y29.862 I0 J0.005
G00 Z5
(Sketch 0)
G90 X45.664 Y33.519
Z8
G01 Z2.225
G02 X45.664 Y33.529 I0 J0.005
X47.134 Y32.059 I0 J-1.47
X44.194 Y32.059 I-1.47 J0
X45.664 Y33.529 I1.47 J0
X45.664 Y33.519 I0 J-0.005
G01 Z1.45
G02 X45.664 Y33.529 I0 J0.005
X47.134 Y32.059 I0 J-1.47
X44.194 Y32.059 I-1.47 J0
X45.664 Y33.529 I1.47 J0
X45.664 Y33.519 I0 J-0.005
G01 Z0.675
G02 X45.664 Y33.529 I0 J0.005
X47.134 Y32.059 I0 J-1.47
X44.194 Y32.059 I-1.47 J0
X45.664 Y33.529 I1.47 J0
X45.664 Y33.519 I0 J-0.005
G01 Z-0.1
G02 X45.664 Y33.529 I0 J0.005
X47.134 Y32.059 I0 J-1.47
X44.194 Y32.059 I-1.47 J0
X45.664 Y33.529 I1.47 J0
X45.664 Y33.519 I0 J-0.005
G00 Z5
(Sketch 0)
G90 X27.704 Y30.634
Z8
G01 Z2.225
G02 X27.704 Y30.624 I0 J-0.005
X25.815 Y32.513 I0 J1.889
X29.593 Y32.513 I1.889 J0
X27.704 Y30.624 I-1.889 J0
X27.704 Y30.634 I0 J0.005
G01 Z1.45
G02 X27.704 Y30.624 I0 J-0.005
X25.815 Y32.513 I0 J1.889
X29.593 Y32.513 I1.889 J0
X27.704 Y30.624 I-1.889 J0
X27.704 Y30.634 I0 J0.005
G01 Z0.675
G02 X27.704 Y30.624 I0 J-0.005
X25.815 Y32.513 I0 J1.889
X29.593 Y32.513 I1.889 J0
X27.704 Y30.624 I-1.889 J0
X27.704 Y30.634 I0 J0.005
G01 Z-0.1
G02 X27.704 Y30.624 I0 J-0.005
X25.815 Y32.513 I0 J1.889
X29.593 Y32.513 I1.889 J0
X27.704 Y30.624 I-1.889 J0
X27.704 Y30.634 I0 J0.005
G00 Z5
(Sketch 0)
G90 X27.249 Y49.013
Z8
G01 Z2.225
G02 X27.249 Y49.003 I0 J-0.005
X25.779 Y50.474 I0 J1.47
X28.719 Y50.474 I1.47 J0
X27.249 Y49.003 I-1.47 J0
X27.249 Y49.013 I0 J0.005
G01 Z1.45
G02 X27.249 Y49.003 I0 J-0.005
X25.779 Y50.474 I0 J1.47
X28.719 Y50.474 I1.47 J0
X27.249 Y49.003 I-1.47 J0
X27.249 Y49.013 I0 J0.005
G01 Z0.675
G02 X27.249 Y49.003 I0 J-0.005
X25.779 Y50.474 I0 J1.47
X28.719 Y50.474 I1.47 J0
X27.249 Y49.003 I-1.47 J0
X27.249 Y49.013 I0 J0.005
G01 Z-0.1
G02 X27.249 Y49.003 I0 J-0.005
X25.779 Y50.474 I0 J1.47
X28.719 Y50.474 I1.47 J0
X27.249 Y49.003 I-1.47 J0
X27.249 Y49.013 I0 J0.005
G00 Z5
(Sketch 0)
G90 X45.664 Y36.796
Z8
G01 Z2.225
G02 X45.664 Y36.786 I0 J-0.005
X31.977 Y50.474 I0 J13.687
X59.352 Y50.474 I13.687 J0
X45.664 Y36.786 I-13.687 J0
X45.664 Y36.796 I0 J0.005
G01 Z1.45
G02 X45.664 Y36.786 I0 J-0.005
X31.977 Y50.474 I0 J13.687
X59.352 Y50.474 I13.687 J0
X45.664 Y36.786 I-13.687 J0
X45.664 Y36.796 I0 J0.005
G01 Z0.675
G02 X45.664 Y36.786 I0 J-0.005
X31.977 Y50.474 I0 J13.687
X59.352 Y50.474 I13.687 J0
X45.664 Y36.786 I-13.687 J0
X45.664 Y36.796 I0 J0.005
G01 Z-0.1
G02 X45.664 Y36.786 I0 J-0.005
X31.977 Y50.474 I0 J13.687
X59.352 Y50.474 I13.687 J0
X45.664 Y36.786 I-13.687 J0
X45.664 Y36.796 I0 J0.005
G00 Z5
(Sketch 0)
G90 X45.664 Y70.349
Z8
G01 Z2.225
G02 X45.664 Y70.359 I0 J0.005
X47.134 Y68.889 I0 J-1.47
X44.194 Y68.889 I-1.47 J0
X45.664 Y70.359 I1.47 J0
X45.664 Y70.349 I0 J-0.005
G01 Z1.45
G02 X45.664 Y70.359 I0 J0.005
X47.134 Y68.889 I0 J-1.47
X44.194 Y68.889 I-1.47 J0
X45.664 Y70.359 I1.47 J0
X45.664 Y70.349 I0 J-0.005
G01 Z0.675
G02 X45.664 Y70.359 I0 J0.005
X47.134 Y68.889 I0 J-1.47
X44.194 Y68.889 I-1.47 J0
X45.664 Y70.359 I1.47 J0
X45.664 Y70.349 I0 J-0.005
G01 Z-0.1
G02 X45.664 Y70.359 I0 J0.005
X47.134 Y68.889 I0 J-1.47
X44.194 Y68.889 I-1.47 J0
X45.664 Y70.359 I1.47 J0
X45.664 Y70.349 I0 J-0.005
G00 Z5
(Sketch 0)
G90 X63.625 Y66.555
Z8
G01 Z2.225
G02 X63.625 Y66.545 I0 J-0.005
X61.736 Y68.434 I0 J1.889
X65.514 Y68.434 I1.889 J0
X63.625 Y66.545 I-1.889 J0
X63.625 Y66.555 I0 J0.005
G01 Z1.45
G02 X63.625 Y66.545 I0 J-0.005
X61.736 Y68.434 I0 J1.889
X65.514 Y68.434 I1.889 J0
X63.625 Y66.545 I-1.889 J0
X63.625 Y66.555 I0 J0.005
G01 Z0.675
G02 X63.625 Y66.545 I0 J-0.005
X61.736 Y68.434 I0 J1.889
X65.514 Y68.434 I1.889 J0
X63.625 Y66.545 I-1.889 J0
X63.625 Y66.555 I0 J0.005
G01 Z-0.1
G02 X63.625 Y66.545 I0 J-0.005
X61.736 Y68.434 I0 J1.889
X65.514 Y68.434 I1.889 J0
X63.625 Y66.545 I-1.889 J0
X63.625 Y66.555 I0 J0.005
G00 Z5
(Sketch 0)
G90 X64.079 Y51.934
Z8
G01 Z2.225
G02 X64.079 Y51.944 I0 J0.005
X65.549 Y50.474 I0 J-1.47
X62.609 Y50.474 I-1.47 J0
X64.079 Y51.944 I1.47 J0
X64.079 Y51.934 I0 J-0.005
G01 Z1.45
G02 X64.079 Y51.944 I0 J0.005
X65.549 Y50.474 I0 J-1.47
X62.609 Y50.474 I-1.47 J0
X64.079 Y51.944 I1.47 J0
X64.079 Y51.934 I0 J-0.005
G01 Z0.675
G02 X64.079 Y51.944 I0 J0.005
X65.549 Y50.474 I0 J-1.47
X62.609 Y50.474 I-1.47 J0
X64.079 Y51.944 I1.47 J0
X64.079 Y51.934 I0 J-0.005
G01 Z-0.1
G02 X64.079 Y51.944 I0 J0.005
X65.549 Y50.474 I0 J-1.47
X62.609 Y50.474 I-1.47 J0
X64.079 Y51.944 I1.47 J0
X64.079 Y51.934 I0 J-0.005
G00 Z5
(Sketch 0)
G90 X83.437 Y34.349
Z8
G01 Z2.225
G02 X83.437 Y34.339 I0 J-0.005
X81.967 Y35.809 I0 J1.47
X84.907 Y35.809 I1.47 J0
X83.437 Y34.339 I-1.47 J0
X83.437 Y34.349 I0 J0.005
G01 Z1.45
G02 X83.437 Y34.339 I0 J-0.005
X81.967 Y35.809 I0 J1.47
X84.907 Y35.809 I1.47 J0
X83.437 Y34.339 I-1.47 J0
X83.437 Y34.349 I0 J0.005
G01 Z0.675
G02 X83.437 Y34.339 I0 J-0.005
X81.967 Y35.809 I0 J1.47
X84.907 Y35.809 I1.47 J0
X83.437 Y34.339 I-1.47 J0
X83.437 Y34.349 I0 J0.005
G01 Z-0.1
G02 X83.437 Y34.339 I0 J-0.005
X81.967 Y35.809 I0 J1.47
X84.907 Y35.809 I1.47 J0
X83.437 Y34.339 I-1.47 J0
X83.437 Y34.349 I0 J0.005
G00 Z5
(Sketch 0)
G90 X83.437 Y47.049
Z8
G01 Z2.225
G02 X83.437 Y47.039 I0 J-0.005
X81.967 Y48.509 I0 J1.47
X84.907 Y48.509 I1.47 J0
X83.437 Y47.039 I-1.47 J0
X83.437 Y47.049 I0 J0.005
G01 Z1.45
G02 X83.437 Y47.039 I0 J-0.005
X81.967 Y48.509 I0 J1.47
X84.907 Y48.509 I1.47 J0
X83.437 Y47.039 I-1.47 J0
X83.437 Y47.049 I0 J0.005
G01 Z0.675
G02 X83.437 Y47.039 I0 J-0.005
X81.967 Y48.509 I0 J1.47
X84.907 Y48.509 I1.47 J0
X83.437 Y47.039 I-1.47 J0
X83.437 Y47.049 I0 J0.005
G01 Z-0.1
G02 X83.437 Y47.039 I0 J-0.005
X81.967 Y48.509 I0 J1.47
X84.907 Y48.509 I1.47 J0
X83.437 Y47.039 I-1.47 J0
X83.437 Y47.049 I0 J0.005
G00 Z5
(Sketch 0)
G90 X83.437 Y59.749
Z8
G01 Z2.225
G02 X83.437 Y59.739 I0 J-0.005
X81.967 Y61.209 I0 J1.47
X84.907 Y61.209 I1.47 J0
X83.437 Y59.739 I-1.47 J0
X83.437 Y59.749 I0 J0.005
G01 Z1.45
G02 X83.437 Y59.739 I0 J-0.005
X81.967 Y61.209 I0 J1.47
X84.907 Y61.209 I1.47 J0
X83.437 Y59.739 I-1.47 J0
X83.437 Y59.749 I0 J0.005
G01 Z0.675
G02 X83.437 Y59.739 I0 J-0.005
X81.967 Y61.209 I0 J1.47
X84.907 Y61.209 I1.47 J0
X83.437 Y59.739 I-1.47 J0
X83.437 Y59.749 I0 J0.005
G01 Z-0.1
G02 X83.437 Y59.739 I0 J-0.005
X81.967 Y61.209 I0 J1.47
X84.907 Y61.209 I1.47 J0
X83.437 Y59.739 I-1.47 J0
X83.437 Y59.749 I0 J0.005
G00 Z5
(Sketch 0)
G90 X83.437 Y72.449
Z8
G01 Z2.225
G02 X83.437 Y72.439 I0 J-0.005
X81.967 Y73.909 I0 J1.47
X84.907 Y73.909 I1.47 J0
X83.437 Y72.439 I-1.47 J0
X83.437 Y72.449 I0 J0.005
G01 Z1.45
G02 X83.437 Y72.439 I0 J-0.005
X81.967 Y73.909 I0 J1.47
X84.907 Y73.909 I1.47 J0
X83.437 Y72.439 I-1.47 J0
X83.437 Y72.449 I0 J0.005
G01 Z0.675
G02 X83.437 Y72.439 I0 J-0.005
X81.967 Y73.909 I0 J1.47
X84.907 Y73.909 I1.47 J0
X83.437 Y72.439 I-1.47 J0
X83.437 Y72.449 I0 J0.005
G01 Z-0.1
G02 X83.437 Y72.439 I0 J-0.005
X81.967 Y73.909 I0 J1.47
X84.907 Y73.909 I1.47 J0
X83.437 Y72.439 I-1.47 J0
X83.437 Y72.449 I0 J0.005
G00 Z5
(Sketch 0)
G90 X83.437 Y85.149
Z8
G01 Z2.225
G02 X83.437 Y85.139 I0 J-0.005
X81.967 Y86.609 I0 J1.47
X84.907 Y86.609 I1.47 J0
X83.437 Y85.139 I-1.47 J0
X83.437 Y85.149 I0 J0.005
G01 Z1.45
G02 X83.437 Y85.139 I0 J-0.005
X81.967 Y86.609 I0 J1.47
X84.907 Y86.609 I1.47 J0
X83.437 Y85.139 I-1.47 J0
X83.437 Y85.149 I0 J0.005
G01 Z0.675
G02 X83.437 Y85.139 I0 J-0.005
X81.967 Y86.609 I0 J1.47
X84.907 Y86.609 I1.47 J0
X83.437 Y85.139 I-1.47 J0
X83.437 Y85.149 I0 J0.005
G01 Z-0.1
G02 X83.437 Y85.139 I0 J-0.005
X81.967 Y86.609 I0 J1.47
X84.907 Y86.609 I1.47 J0
X83.437 Y85.139 I-1.47 J0
X83.437 Y85.149 I0 J0.005
G00 Z5
T0 M06 M02
